X: 34778
T: Road To Rossmore, The
R: reel
M: 4/4
K: Gmajor
|:GA|B3A BcdB|G3E D2EG|A3G ABAG|FGEG D2GA|
B3A BcdB|GAGE D2EG|A2AB cAFG|1 (3ABA GFGD:|2 (3ABA GF G2||
|:Bc|dB3 g2fg|fe e2 e2AB|cA3 f3e|edd^c d2B=c|
dB3 g2fg|ae e2 e2Bc|dBAB cAFG|(3ABA GF G2Bc|
dB3 g2fg|fe e2 e2AB|cA3 f3e|edd^c d2B=c|
dB3 g2fg|afge A3G|FGAB cAFG|(3ABA GF G2||

